.local/share/icons/Gruvbox-Plus-Dark/mimetypes/scalable/text-x-go.svg

<svg width="256" height="256" viewBox="0 0 256 256" fill="none" xmlns="http://www.w3.org/2000/svg">
<g opacity="0.4" filter="url(#filter0_f)">
<path d="M55.0839 15.5636H155.608L216.009 75.7129L216.011 224.609C216.011 233.52 208.749 240.737 199.838 240.737H55.0838C46.1734 240.737 39 233.564 39 224.654V31.6474C39 22.737 46.1734 15.5636 55.0838 15.5636H55.0839Z" fill="#282828"/>
</g>
<path d="M55.0839 15H155.608L216.009 75.1493L216.011 224.045C216.011 232.956 208.749 240.174 199.838 240.174H55.0838C46.1734 240.174 39 233 39 224.09V31.0838C39 22.1734 46.1734 15 55.0838 15H55.0839Z" fill="#ebdbb2"/>
<path fill-rule="evenodd" clip-rule="evenodd" d="M155.609 22.9787H55.0839C50.58 22.9787 46.9787 26.5799 46.9787 31.0838V224.09C46.9787 228.594 50.5799 232.195 55.0838 232.195H199.838C204.371 232.195 208.032 228.521 208.032 224.046V75.1493L155.609 22.9787ZM155.608 15H55.0839C46.1735 15 39 22.1734 39 31.0838V224.09C39 233 46.1734 240.174 55.0838 240.174H199.838C208.749 240.174 216.011 232.956 216.011 224.045L216.009 75.1493L155.608 15Z" fill="url(#paint0_linear)"/>
<path d="M93.7138 76C79.5113 76 68 87.6402 68 102.002C68 116.361 79.5113 128 93.7138 128C107.917 128 119.429 116.361 119.429 102.001C119.429 87.6391 107.917 76 93.7138 76ZM85.1425 93.333C86.2683 93.3327 87.3831 93.5567 88.4232 93.9922C89.4633 94.4277 90.4084 95.0661 91.2044 95.8711C92.0004 96.676 92.6317 97.6316 93.0623 98.6833C93.4929 99.7351 93.7142 100.862 93.7138 102.001C93.7141 103.139 93.4926 104.266 93.062 105.317C92.6313 106.369 92 107.325 91.204 108.129C90.408 108.934 89.463 109.572 88.423 110.008C87.3829 110.443 86.2682 110.667 85.1425 110.667C84.0169 110.667 82.9022 110.443 81.8621 110.008C80.8221 109.572 79.8771 108.934 79.0811 108.129C78.2851 107.325 77.6538 106.369 77.2231 105.317C76.7925 104.266 76.571 103.139 76.5713 102.001C76.5708 100.862 76.7922 99.7351 77.2228 98.6833C77.6534 97.6316 78.2847 96.676 79.0807 95.8711C79.8767 95.0661 80.8218 94.4277 81.8619 93.9922C82.902 93.5567 84.0168 93.3327 85.1425 93.333ZM162.286 76C148.083 76 136.571 87.6391 136.571 102.001C136.571 116.361 148.083 128 162.286 128C176.489 128 188 116.361 188 102.001C188 87.6391 176.489 76 162.286 76ZM153.714 93.333C154.84 93.3325 155.955 93.5564 156.995 93.9919C158.035 94.4273 158.98 95.0657 159.776 95.8707C160.572 96.6756 161.204 97.6313 161.635 98.6831C162.065 99.7349 162.287 100.862 162.286 102.001C162.286 103.139 162.065 104.266 161.634 105.318C161.204 106.369 160.572 107.325 159.776 108.13C158.98 108.935 158.035 109.573 156.995 110.008C155.954 110.444 154.84 110.667 153.714 110.667C152.588 110.667 151.473 110.443 150.433 110.008C149.393 109.572 148.448 108.934 147.652 108.129C146.856 107.325 146.225 106.369 145.794 105.317C145.364 104.266 145.142 103.139 145.143 102.001C145.142 100.862 145.364 99.7351 145.794 98.6833C146.225 97.6316 146.856 96.676 147.652 95.8711C148.448 95.0661 149.393 94.4277 150.433 93.9922C151.473 93.5567 152.588 93.3327 153.714 93.333V93.333Z" fill="url(#paint1_linear)"/>
<path fill-rule="evenodd" clip-rule="evenodd" d="M115.143 136.666C115.143 131.88 120.898 128 128 128C135.101 128 140.857 131.879 140.857 136.666H143C144.407 136.665 145.801 136.945 147.102 137.489C148.402 138.033 149.584 138.831 150.579 139.837C151.574 140.843 152.363 142.038 152.901 143.353C153.439 144.668 153.715 146.077 153.714 147.5C153.717 148.924 153.442 150.334 152.904 151.65C152.367 152.965 151.578 154.161 150.583 155.167C149.587 156.174 148.405 156.972 147.104 157.515C145.802 158.058 144.408 158.336 143 158.333H140.857V173.5C140.857 175.224 140.179 176.876 138.974 178.095C137.768 179.314 136.133 179.999 134.429 180C132.724 179.999 131.089 179.314 129.884 178.095C128.678 176.876 128.001 175.224 128 173.5C127.999 175.224 127.322 176.876 126.116 178.095C124.911 179.314 123.276 179.999 121.571 180C119.867 179.999 118.232 179.314 117.026 178.095C115.821 176.876 115.143 175.224 115.143 173.5V158.333H113C111.592 158.338 110.196 158.061 108.894 157.519C107.592 156.976 106.409 156.178 105.413 155.171C104.417 154.165 103.628 152.968 103.092 151.652C102.555 150.335 102.281 148.924 102.286 147.5C102.283 146.077 102.558 144.667 103.095 143.351C103.633 142.035 104.422 140.84 105.417 139.833C106.413 138.826 107.595 138.028 108.896 137.485C110.197 136.942 111.592 136.663 113 136.666H115.143Z" fill="url(#paint2_linear)"/>
<path opacity="0.25" d="M155.608 17V61.2306C155.608 70.141 162.867 77.1605 171.777 77.1605L216.009 77.1493V75.1493L155.608 17Z" fill="#282828"/>
<path d="M155.608 15V59.2306C155.608 68.141 162.867 75.1605 171.777 75.1605L216.009 75.1493L155.608 15Z" fill="url(#paint3_linear)"/>
<defs>
<filter id="filter0_f" x="23.8778" y="0.441412" width="207.255" height="255.418" filterUnits="userSpaceOnUse" color-interpolation-filters="sRGB">
<feFlood flood-opacity="0" result="BackgroundImageFix"/>
<feBlend mode="normal" in="SourceGraphic" in2="BackgroundImageFix" result="shape"/>
<feGaussianBlur stdDeviation="7.5611" result="effect1_foregroundBlur"/>
</filter>
<linearGradient id="paint0_linear" x1="72.1366" y1="16.0339" x2="72.9729" y2="239.888" gradientUnits="userSpaceOnUse">
<stop stop-color="#83a598"/>
<stop offset="1" stop-color="#458588"/>
</linearGradient>
<linearGradient id="paint1_linear" x1="90.4641" y1="76.2388" x2="90.5299" y2="127.935" gradientUnits="userSpaceOnUse">
<stop stop-color="#83a598"/>
<stop offset="1" stop-color="#458588"/>
</linearGradient>
<linearGradient id="paint2_linear" x1="111.913" y1="128.239" x2="112.067" y2="179.934" gradientUnits="userSpaceOnUse">
<stop stop-color="#83a598"/>
<stop offset="1" stop-color="#458588"/>
</linearGradient>
<linearGradient id="paint3_linear" x1="166.915" y1="15.2762" x2="167.09" y2="75.0844" gradientUnits="userSpaceOnUse">
<stop stop-color="#83a598"/>
<stop offset="1" stop-color="#458588"/>
</linearGradient>
</defs>
</svg>

<svg width="256" height="256" fill="none" version="1.1" viewBox="0 0 256 256" xmlns="http://www.w3.org/2000/svg">
  <path d="m55.08 15h100.5l60.4 60.15 2e-3 148.9c0 8.911-7.262 16.13-16.17 16.13h-144.8c-8.91 0-16.08-7.174-16.08-16.08v-193c0-8.91 7.173-16.08 16.08-16.08h1e-4z" fill="#ebdbb2"/>
  <path d="m155.6 22.98h-100.5c-4.504 0-8.105 3.601-8.105 8.105v193c0 4.504 3.601 8.105 8.105 8.105h144.8c4.533 0 8.194-3.674 8.194-8.149v-148.9l-52.42-52.17zm-1e-3 -7.979h-100.5c-8.91 0-16.08 7.173-16.08 16.08v193c0 8.91 7.173 16.08 16.08 16.08h144.8c8.911 0 16.17-7.218 16.17-16.13l-2e-3 -148.9-60.4-60.15z" clip-rule="evenodd" fill="url(#paint0_linear)" fill-rule="evenodd"/>
  <path d="m93.71 76c-14.2 0-25.71 11.64-25.71 26 0 14.36 11.51 26 25.71 26 14.2 0 25.72-11.64 25.72-26 0-14.36-11.51-26-25.72-26zm-8.571 17.33c1.126-3e-4 2.241 0.2237 3.281 0.6592s1.985 1.074 2.781 1.879c0.796 0.8049 1.427 1.76 1.858 2.812 0.4306 1.052 0.6519 2.179 0.6515 3.318 3e-4 1.138-0.2212 2.265-0.6518 3.316-0.4307 1.052-1.062 2.008-1.858 2.812-0.796 0.805-1.741 1.443-2.781 1.879-1.04 0.435-2.155 0.659-3.28 0.659-1.126 0-2.24-0.224-3.28-0.659-1.04-0.436-1.985-1.074-2.781-1.879-0.796-0.804-1.427-1.76-1.858-2.812-0.4306-1.051-0.6521-2.178-0.6518-3.316-5e-4 -1.139 0.2209-2.266 0.6515-3.318 0.4306-1.052 1.062-2.007 1.858-2.812 0.796-0.805 1.741-1.443 2.781-1.879s2.155-0.6595 3.281-0.6592zm77.14-17.33c-14.2 0-25.72 11.64-25.72 26 0 14.36 11.51 26 25.72 26s25.71-11.64 25.71-26c0-14.36-11.51-26-25.71-26zm-8.572 17.33c1.126-5e-4 2.241 0.2234 3.281 0.6589 1.04 0.4354 1.985 1.074 2.781 1.879 0.796 0.8049 1.428 1.761 1.859 2.812 0.43 1.052 0.652 2.179 0.651 3.318 0 1.138-0.221 2.265-0.652 3.317-0.43 1.051-1.062 2.007-1.858 2.812s-1.741 1.443-2.781 1.878c-1.041 0.436-2.155 0.659-3.281 0.659s-2.241-0.224-3.281-0.659c-1.04-0.436-1.985-1.074-2.781-1.879-0.796-0.804-1.427-1.76-1.858-2.812-0.43-1.051-0.652-2.178-0.651-3.316-1e-3 -1.139 0.221-2.266 0.651-3.318 0.431-1.052 1.062-2.007 1.858-2.812 0.796-0.805 1.741-1.443 2.781-1.879s2.155-0.6595 3.281-0.6592z" fill="url(#paint1_linear)"/>
  <path d="m115.1 136.7c0-4.786 5.755-8.666 12.86-8.666 7.101 0 12.86 3.879 12.86 8.666h2.143c1.407-1e-3 2.801 0.279 4.102 0.823 1.3 0.544 2.482 1.342 3.477 2.348s1.784 2.201 2.322 3.516 0.814 2.724 0.813 4.147c3e-3 1.424-0.272 2.834-0.81 4.15-0.537 1.315-1.326 2.511-2.321 3.517-0.996 1.007-2.178 1.805-3.479 2.348-1.302 0.543-2.696 0.821-4.104 0.818h-2.143v15.17c0 1.724-0.678 3.376-1.883 4.595-1.206 1.219-2.841 1.904-4.545 1.905-1.705-1e-3 -3.34-0.686-4.545-1.905-1.206-1.219-1.883-2.871-1.884-4.595-1e-3 1.724-0.678 3.376-1.884 4.595-1.205 1.219-2.84 1.904-4.545 1.905-1.704-1e-3 -3.339-0.686-4.545-1.905-1.205-1.219-1.883-2.871-1.883-4.595v-15.17h-2.143c-1.408 5e-3 -2.804-0.272-4.106-0.814-1.302-0.543-2.485-1.341-3.481-2.348-0.996-1.006-1.785-2.203-2.321-3.519-0.537-1.317-0.811-2.728-0.806-4.152-3e-3 -1.423 0.272-2.833 0.809-4.149 0.538-1.316 1.327-2.511 2.322-3.518 0.996-1.007 2.178-1.805 3.479-2.348s2.696-0.822 4.104-0.819h2.143z" clip-rule="evenodd" fill="url(#paint2_linear)" fill-rule="evenodd"/>
  <path d="m155.6 17v44.23c0 8.91 7.259 15.93 16.17 15.93l44.23-0.0112v-2l-60.4-58.15z" fill="#282828" opacity=".25"/>
  <path d="m155.6 15v44.23c0 8.91 7.259 15.93 16.17 15.93l44.23-0.0112-60.4-60.15z" fill="url(#paint3_linear)"/>
  <defs>
    <linearGradient id="paint0_linear" x1="72.14" x2="72.97" y1="16.03" y2="239.9" gradientUnits="userSpaceOnUse">
      <stop stop-color="#83a598" offset="0"/>
      <stop stop-color="#458588" offset="1"/>
    </linearGradient>
    <linearGradient id="paint1_linear" x1="90.46" x2="90.53" y1="76.24" y2="127.9" gradientUnits="userSpaceOnUse">
      <stop stop-color="#83a598" offset="0"/>
      <stop stop-color="#458588" offset="1"/>
    </linearGradient>
    <linearGradient id="paint2_linear" x1="111.9" x2="112.1" y1="128.2" y2="179.9" gradientUnits="userSpaceOnUse">
      <stop stop-color="#83a598" offset="0"/>
      <stop stop-color="#458588" offset="1"/>
    </linearGradient>
    <linearGradient id="paint3_linear" x1="166.9" x2="167.1" y1="15.28" y2="75.08" gradientUnits="userSpaceOnUse">
      <stop stop-color="#83a598" offset="0"/>
      <stop stop-color="#458588" offset="1"/>
    </linearGradient>
  </defs>
</svg>
